X:05
T: Rebecca
C: Herschel Sizemore
S: MandoZine TablEdit Archives
Z: TablEdited by Mike Stangeland for MandoZine
L: 1/8
Q: 500
M: 4/4
K: B
 z2 F2 B2 d2 |: "B"ef fg f2 f=g | gb gf "E"e2 e2 | "B"cd fb gf dg | fd cB F2 Bc |
 "F#"cf cd [f2c2] fd | c=A Bc ^AF A=D | "E"EF =G^G Bd cB |
M: 2/4
 GF E=D |
M: 4/4
 "B"F2 BF FB F2 |1 B=D FG Bc d2 :|2 BF B=A ^AG BG |
 "F#"c2 e2 c2 e2 | de c=A ^AA e2 | "E"EF =G^G B=d cB |
M: 2/4
 GF E=D |
M: 4/4
 |1 F2 BF FB F2 :|2 c2 fc cf c2 | fc b2 g2 f2 | "B"Bc =d^d f2 f=g |
M: 2/4
 GF E2 |
M: 4/4
 z2 F2 G2 F2 | F=D C2 [FC]^D3 |
